svgs/sharp-regular/user-headset.svg

<svg xmlns="http://www.w3.org/2000/svg" viewBox="0 0 448 512"><!--! Font Awesome Pro 6.6.0 by @fontawesome - https://fontawesome.com License - https://fontawesome.com/license (Commercial License) Copyright 2024 Fonticons, Inc. --><path d="M224 32C135.6 32 64 103.6 64 192l0 32-32 0 0-32C32 86 118 0 224 0S416 86 416 192l0 112 0 16-16 0-128 0-48 0-48 0 0-64 96 0 0 32 112 0 0-96c0-88.4-71.6-160-160-160zM14.4 464L48 352l96 0 6.6 0 25.4 0 48 0 48 0 25.4 0L400 352l33.6 112L448 512l-50.1 0L50.1 512 0 512l14.4-48zM144 291.9c-29.3-23.5-48-59.5-48-99.9c0-70.7 57.3-128 128-128s128 57.3 128 128c0 23.3-6.2 45.2-17.1 64L304 256l0-32 0-32c0-44.2-35.8-80-80-80s-80 35.8-80 80l0 32 0 67.9zM83.7 400L64.5 464l319 0-19.2-64L83.7 400z"/></svg>

<svg xmlns="http://www.w3.org/2000/svg" viewBox="0 0 448 512"><!--! Font Awesome Pro 6.4.2 by @fontawesome - https://fontawesome.com License - https://fontawesome.com/license (Commercial License) Copyright 2023 Fonticons, Inc. --><path d="M224 32C135.6 32 64 103.6 64 192v32H32V192C32 86 118 0 224 0S416 86 416 192V304v16H400 272 224 176V256h96v32H384V192c0-88.4-71.6-160-160-160zM14.4 464L48 352h96 6.6H176h48 48 25.4H400l33.6 112L448 512H397.9 50.1 0l14.4-48zM144 291.9c-29.3-23.5-48-59.5-48-99.9c0-70.7 57.3-128 128-128s128 57.3 128 128c0 23.3-6.2 45.2-17.1 64H304V224 192c0-44.2-35.8-80-80-80s-80 35.8-80 80v32 67.9zM83.7 400L64.5 464h319l-19.2-64H83.7z"/></svg>
